!!!!SEGMENT: Ser1004c-Requiem-Responsorium
!!!id: Ser1004c
!!!AGN: Mass; Responsorium
!!!voices: 4
!!!OPR: Requiem
!!!COM: Claudin de Sermisy
!!!OTL: Responsorium
**kern	**kern	**kern	**kern
*part4	*part3	*part2	*part1
*staff4	*staff3	*staff2	*staff1
*I"Bassus	*I"Tenor	*I"Altus	*I"Superius
*I'B	*I'T	*I'A	*I'S
*clefF4	*clefGv2	*clefGv2	*clefGv2
*k[]	*k[]	*k[]	*k[]
*M2/1	*M2/1	*M2/1	*M2/1
*met(C|)	*met(C|)	*met(C|)	*met(C|)
=1	=1	=1	=1
!!section: In medio
!!!OMD: In medio
!	!	!	!LO:TX:a:t=Cantus firmus&colon; Missa pro defunctis \n
0D	0F	1.A	0d
.	.	2B	.
=2	=2	=2	=2
1C	1G	2c	1e
.	.	4C	.
.	.	4D	.
1AA	[1A	4E	1c
.	.	4C	.
.	.	[2F	.
=3	=3	=3	=3
1.BB	2A]	4F]	1.d
.	.	4E	.
.	4G	4D	.
.	4F	4C	.
.	1G	1D	.
2BB	.	.	2d
=4	=4	=4	=4
0AA	1A	0E	1.c
.	[1c	.	.
.	.	.	2B
=5	=5	=5	=5
0r	2c]	1.c	2A
.	2B	.	2G
.	2A	.	1F
.	2G	2B	.
=6	=6	=6	=6
1r	1F	1A	2c
.	.	.	2d
[1C	1E	1G	1e
=7	=7	=7	=7
2C]	1G	1.c	0r
2BB	.	.	.
2AA	2A	.	.
2GG	[2B	2d	.
=8	=8	=8	=8
1AA	2B]	2c	2r
.	1A	2A	2.E
1E	.	1B	.
.	.	.	4F
.	2G	.	2G
=9	=9	=9	=9
2r	[0A	1A	2.F
1D	.	.	.
.	.	.	8EL
.	.	.	8DJ
.	.	1r	2E
2C	.	.	2E
=10	=10	=10	=10
1D	0A]	2r	2D
.	.	1F	1d
1AA	.	.	.
.	.	2E	2c#i
=11	=11	=11	=11
1D	1A	2F	1d
.	.	2.D	.
2r	1F	.	1A
.	.	4E	.
[2D	.	[2F	.
=12	=12	=12	=12
2D]	0A	4F]	2d
.	.	4D	.
2C	.	1G	2e
1D	.	.	1d
.	.	2F	.
=13	=13	=13	=13
2.E	0G	2.G	2.B
4D	.	4A	4c
2BB	.	2B	2d
[2C	.	2G	[2e
=14	=14	=14	=14
2C]	2r	4c	2e]
.	.	4B	.
2D	1F	4A	1d
.	.	4G	.
1AA	.	[1A	.
.	2E	.	2c#i
=15	=15	=15	=15
1D	1F	2A]	[0d
.	.	2A	.
1GG	2.D	1B	.
.	4E	.	.
=16	=16	=16	=16
1D	2F	2A	0d]
.	1G	2G	.
1D	.	2.A	.
.	2F	.	.
.	.	4G	.
=17	=17	=17	=17
2.C	0G	1E	1r
4D	.	.	.
1E	.	1r	1G
=18	=18	=18	=18
4D	0r	1r	1d
4C	.	.	.
4BB	.	.	.
4AA	.	.	.
1BB	.	1D	[1d
=19	=19	=19	=19
0AA	0r	1A	2d]
.	.	.	4c
.	.	.	4B
.	.	1A	2.c
.	.	.	4d
=20	=20	=20	=20
1r	0r	2G	1e
.	.	2A	.
1GG	.	1B	4d
.	.	.	4c
.	.	.	4d
.	.	.	4e
=21	=21	=21	=21
1D	1D	1A	1f
1D	1A	1F	1d
=22	=22	=22	=22
2C	1A	2E	2e
2D	.	2F	1d
1E	1G	2G	.
.	.	2E	2c
=23	=23	=23	=23
1D	1.A	1F	1d
1AA	.	[1E	2c
.	[2c	.	[2A
=24	=24	=24	=24
1r	2c]	1E]	2A]
.	2B	.	2G
1AA	2c	1r	2A
.	[2A	.	2E
=25	=25	=25	=25
1D	2A]	2r	2F
.	2.F	1A	2D
1D	.	.	1d
.	4G	.	.
.	4A	2F	.
.	4B	.	.
=26	=26	=26	=26
2C	2c	1G	2e
2E	1G	.	2c
1D	.	1A	1d
.	2F#i	.	.
=27	=27	=27	=27
0GG	1G	1r	2.B
.	.	.	4c
.	2r	2.G	1d
.	[2G	.	.
.	.	4A	.
=28	=28	=28	=28
0r	2G]	4B	1r
.	.	4c	.
.	2F	1d	.
.	1E	.	2.G
.	.	2c	.
.	.	.	4A
=29	=29	=29	=29
0r	4D	1d	4B
.	4E	.	4c
.	4F	.	1d
.	4D	.	.
.	1E	1G	.
.	.	.	2c#i
=30	=30	=30	=30
2.D	1F	2r	1d
.	.	2.d	.
4E	.	.	.
4F	[1D	.	1r
4G	.	4c	.
[2A	.	2A	.
=31	=31	=31	=31
2A]	2D]	1B	0r
2G	2E	.	.
2.A	1F	2A	.
.	.	[2d	.
8GL	.	.	.
8FJ	.	.	.
=32	=32	=32	=32
1E	1G	2d]	1r
.	.	2c	.
2D	[1F	2d	2r
2BB	.	2D	[2d
=33	=33	=33	=33
1AA	1F]	1A	2d]
.	.	.	2c
1GG	1G	2D	1B
.	.	[2G	.
=34	=34	=34	=34
0r	1D	2G]	2A
.	.	2F	2.d
.	1E	[1G	.
.	.	.	4c
.	.	.	[2c
=35	=35	=35	=35
0GG	0D	0G]	2c]
.	.	.	4B
.	.	.	4A
.	.	.	1B
=36	=36	=36	=36
1.AA	0C	1E	1c
.	.	1r	2r
2FF	.	.	[2c
=37	=37	=37	=37
1FF	0r	1F	2c]
.	.	.	2A
1r	.	2D	2B
.	.	2E	[2c
=38	=38	=38	=38
0r	1r	1F	2c]
.	.	.	2d
.	2r	2G	2e
.	[2F	[2A	[2c
=39	=39	=39	=39
0r	2F]	2A]	2c]
.	2D	2F	2d
.	1E	1G	2B
.	.	.	[2c
=40	=40	=40	=40
1r	1F	2.A	4c]
.	.	.	4B
.	.	.	4c
.	.	4G	4A
2r	1G	[1E	2B
[2C	.	.	[2c
=41	=41	=41	=41
2C]	1A	1E]	4c]
.	.	.	4d
2AA	.	.	4e
.	.	.	4c
2BB	1G	1r	2d
[2C	.	.	[2e
=42	=42	=42	=42
2C]	1.A	2r	2e]
2.D	.	1F	2d
.	.	.	1d
4C	.	.	.
2BB	2B	2D	.
=43	=43	=43	=43
2AA	1.c	2E	2r
2FF	.	2F	2A
[1C	.	1G	1e
.	4B	.	.
.	4A	.	.
=44	=44	=44	=44
1C]	1G	1E	0e
1AA	[1A	[1c	.
=45	=45	=45	=45
0E	2A]	2c]	0e
.	4G#i	4B	.
.	4F#i	4A	.
.	1G#i	1B	.
=46	=46	=46	=46
1AA	[0A	2A	1c
.	.	2E	.
2r	.	1F	2r
[2AA	.	.	[2c
=47	=47	=47	=47
2AA]	0A]	1.E	2c]
2AA	.	.	2c
1AA	.	.	2.c
.	.	2F	.
.	.	.	8BL
.	.	.	8AJ
=48	=48	=48	=48
1GG	1.D	1G	1B
1r	.	2F	2A
.	2D	[2A	[2F
=49	=49	=49	=49
0r	1D	4A]	4F]
.	.	4G	4G
.	.	1F	4A
.	.	.	4F
.	1C	.	2.G
.	.	2E	.
.	.	.	4A
=50	=50	=50	=50
2r	1D	1F	2B-i
1D	.	.	2A
.	[1F	[1A	[1d
2D	.	.	.
=51	=51	=51	=51
1D	1F]	2A]	2d]
.	.	2B	2d
2.C	1G	[1c	[1e
4BB	.	.	.
=52	=52	=52	=52
1AA	1.A	1c]	1e]
1r	.	[1c	[1e
.	4G	.	.
.	4F	.	.
=53	=53	=53	=53
1.AA	0E	2c]	2e]
.	.	4B	4d
.	.	4A	4c
.	.	[1A	[1c
2AA	.	.	.
=54	=54	=54	=54
1AA	1F	1A]	2c]
.	.	.	2c
1GG	1G	[1D	2.B
.	.	.	4c
=55	=55	=55	=55
0BB	1F	2D]	1d
.	.	2E	.
.	1D	2F	[1d
.	.	2G	.
=56	=56	=56	=56
0AA	0E	0A	2d]
.	.	.	4c#i
.	.	.	4B
.	.	.	1c#i
=57	=57	=57	=57
0Dl	0Dl	0Fl	0dl
==	==	==	==
*-	*-	*-	*-
!!!system-decoration: s1,s2,s3,s4
!!!RDF**kern: i = editorial accidental
!!!RDF**kern: l = terminal long
!!!ENC: Max Blistain
!!!END: 2025/11/12
!!!EED: Benjamin Ory
!!!EEV: 2025/11/19
!!!YEC: Copyright 2025 Benjamin Ory, All Rights Reserved
!!!ONB: Translated from MusicXML on 2025/11/19
